!! Isochronous pitch passage.
!! Treble-line.
!! From Brahms, Quintet No. 3, 4th movement, measure 38ff.
!! First violin.
!! 12/16 meter
**kern	**metpos
*M12/16	*M12/16
*tb16	*tb16
=38	=38
16r	1
16r	4
16r	4
16r	3
16r	4
16r	4
16r	2
16r	4
16r	4
16dd	3
16ee-	4
16een	4
=39	=39
16gg	1
16een	4
16ff	4
16ee	3
16gg	4
16ee	4
16bb-	2
16ee	4
16ff	4
16ddd	3
16ccc	4
16aa	4
=40	=40
16gg	1
16een	4
16ff	4
16ee	3
16gg	4
16ee	4
16bb-	2
16ee	4
16ff	4
16ggg	3
16fff	4
16eee-	4
=41	=41
16eee-	1
16ddd	4
16ccc	4
16ccc	3
16bb-	4
16aa	4
16ccc	2
16bb-	4
16gg	4
16ff	3
16ee-	4
16bb-	4
=42	=42
16ee-	1
16dd	4
16bb-	4
16dd	3
16cc#	4
16bb-	4
16aa	2
16ff#	4
16cc#	4
16dd	3
16ee-	4
16een	4
=43	=43
16gg	1
16een	4
16ff	4
16ee	3
16gg	4
16ee	4
16bb-	2
16ee	4
16ff	4
16ddd	3
16ccc	4
16aa	4
=44	=44
16gg	1
16een	4
16ff	4
16ee	3
16gg	4
16ee	4
16bb-	2
16ee	4
16ff	4
16ggg	3
16fff	4
16eee-	4
=45	=45
16eee-	1
16ddd	4
16ccc	4
16ccc	3
16bb-	4
16aa	4
16ccc	2
16bb-	4
16gg	4
16ff	3
16ee	4
16bb-	4
=46	=46
16ee-	1
16dd	4
16bb-	4
16dd	3
16cc#	4
16bb-	4
16aa	2
16ff#	4
16dd	4
16ff#	3
16aa	4
16ddd	4
=47	=47
16cccn	1
16bbn	4
16aa	4
16gg	3
16bb	4
16eee	4
16ddd	2
16ccc#	4
16bb	4
16aa	3
16ccc	4
16fff#	4
=48	=48
16aaa	1
16ggg	4
16fff#	4
16ggg	3
16eeen	4
16bbn	4
16gg	2
16een	4
16bbn	4
16b-	3
16r	4
16r	4
=49	=49
*-	*-
